X: 921
T: the Redhaired Boy   #2
%T: the Absent-Minded Man
%T: the Little Beggar Man
R: hornpipe
%S: s:4 b:16(4+4+4+4)
B: Francis O'Neill: "The Dance Music of Ireland" (1907) #921
Z: Frank Nordberg - http://www.musicaviva.com
F: http://www.musicaviva.com/abc/tunes/ireland/oneill-1001/0921/oneill-1001-0921-1.abc
N: Compacted via repeats and multiple endings [JC]
N: Compacted by using labels and play order [JC]
P: Play (A1A2)x2 + (BA2)x2
M: 2/4
L: 1/16
K: A
"^A"[|] (AG) |: EAAG ABcd | efec d2(cd) |[1,3 edcB ABcA | BGEF =G2(ED) :|[2,4 eaab aged | c2A2"^fine"A2 :|
"^B"|: (ef) | =gfga g2(ef) | =gfec d2(cd) | edcB ABcA | BGEF =G2 "^->A2"(ED) |]
